svg/u1f922.svg

<svg viewBox="0 0 128 128" xmlns="http://www.w3.org/2000/svg">
  <defs>
    <radialGradient id="SVGID_1_" cx="63.6" cy="62.8999" gradientUnits="userSpaceOnUse" r="56.9597">
      <stop offset="0" stop-color="#FDE030"/>
      <stop offset="0.19" stop-color="#F1DE37"/>
      <stop offset="0.53" stop-color="#D1D748"/>
      <stop offset="0.99" stop-color="#9DCC64"/>
      <stop offset="1" stop-color="#9CCC65"/>
    </radialGradient>
    <radialGradient id="SVGID_2_" cx="103.486275" cy="-123.431821" gradientTransform="matrix(0.89 0 0 -0.78 0 0)" gradientUnits="userSpaceOnUse" r="15.84">
      <stop offset="0" stop-color="#ED7770"/>
      <stop offset="0.08" stop-color="#ED7770" stop-opacity="0.97"/>
      <stop offset="0.21" stop-color="#ED7770" stop-opacity="0.88"/>
      <stop offset="0.35" stop-color="#ED7770" stop-opacity="0.74"/>
      <stop offset="0.52" stop-color="#ED7770" stop-opacity="0.55"/>
      <stop offset="0.71" stop-color="#ED7770" stop-opacity="0.29"/>
      <stop offset="0.9" stop-color="#ED7770" stop-opacity="0"/>
    </radialGradient>
    <radialGradient id="SVGID_3_" cx="41.550575" cy="-125.996692" gradientTransform="matrix(0.89 0 0 -0.78 0 0)" gradientUnits="userSpaceOnUse" r="15.8327">
      <stop offset="0" stop-color="#ED7770"/>
      <stop offset="0.08" stop-color="#ED7770" stop-opacity="0.97"/>
      <stop offset="0.21" stop-color="#ED7770" stop-opacity="0.88"/>
      <stop offset="0.35" stop-color="#ED7770" stop-opacity="0.74"/>
      <stop offset="0.52" stop-color="#ED7770" stop-opacity="0.55"/>
      <stop offset="0.71" stop-color="#ED7770" stop-opacity="0.29"/>
      <stop offset="0.9" stop-color="#ED7770" stop-opacity="0"/>
    </radialGradient>
  </defs>
  <path d="M63.6,118.8 C35.7,118.8 5.6,101.3 5.6,62.9 C5.6,24.5 35.7,7 63.6,7 C79.1,7 93.4,12.1 104,21.4 C115.5,31.6 121.6,46 121.6,62.9 C121.6,79.8 115.5,94.1 104,104.3 C93.4,113.6 79,118.8 63.6,118.8 Z" fill="url(#SVGID_1_)"/>
  <path d="M111.49,29.67 C116.82,38.27 119.6,48.51 119.6,59.9 C119.6,76.8 113.5,91.1 102,101.3 C91.4,110.6 77,115.8 61.6,115.8 C43.54,115.8 24.6,108.45 13.42,92.86 C24.18,110.52 44.42,118.8 63.6,118.8 C79,118.8 93.4,113.6 104,104.3 C115.5,94.1 121.6,79.8 121.6,62.9 C121.6,50.16 118.13,38.84 111.49,29.67 Z" fill="#789E46"/>
  <path d="M105.1,96.1 A12.97 11.89 0 1 1 79.16,96.1 A12.97 11.89 0 1 1 105.1,96.1 Z" fill="url(#SVGID_2_)" opacity="0.65"/>
  <path d="M49.95,98.1 A12.97 11.89 0 1 1 24.01,98.1 A12.97 11.89 0 1 1 49.95,98.1 Z" fill="url(#SVGID_3_)" opacity="0.65"/>
  <path d="M43.867,84.768 Q49.39,87.415 51.965,93.726 Q53.586,97.797 52.751,102.047 Q52.541,103.116 51.636,103.723 Q50.732,104.331 49.663,104.121 Q48.594,103.911 47.987,103.006 Q47.379,102.102 47.589,101.033 Q48.126,98.303 47.095,95.714 Q45.286,91.281 41.593,89.512 Q40.611,89.041 40.249,88.013 Q39.887,86.986 40.358,86.003 Q40.829,85.021 41.857,84.659 Q42.884,84.297 43.867,84.768 Z" fill="#35220B"/>
  <path d="M85.629,88.785 Q81.911,90.553 80.115,94.954 Q79.455,96.556 79.419,98.304 Q79.397,99.393 78.611,100.147 Q77.826,100.902 76.736,100.879 Q75.647,100.857 74.893,100.071 Q74.138,99.285 74.161,98.196 Q74.216,95.464 75.245,92.966 Q77.811,86.678 83.371,84.035 Q84.354,83.567 85.381,83.932 Q86.407,84.297 86.875,85.281 Q87.343,86.265 86.978,87.291 Q86.613,88.317 85.629,88.785 Z" fill="#35220B"/>
  <path d="M46.974,93.294 Q47.714,91.223 50.488,89.513 Q55.082,86.68 63.6,86.55 Q76.259,86.349 79.753,91.064 Q80.402,91.939 80.241,93.017 Q80.081,94.094 79.206,94.743 Q78.331,95.392 77.253,95.231 Q76.176,95.071 75.527,94.196 Q75.281,93.864 73.854,93.259 Q70.194,91.706 63.68,91.81 Q56.61,91.917 53.249,93.99 Q52.405,94.51 51.983,95.049 L51.926,95.066 Q51.56,96.091 50.575,96.557 Q49.59,97.023 48.564,96.656 Q47.539,96.29 47.073,95.305 Q46.607,94.32 46.974,93.294 Z" fill="#35220B"/>
  <path d="M27.4,51.8 C25.2,52.2 25.1,55.4 27.5,55.5 C32.8,55.57 37.92,53.6 41.8,50 C43.28,48.72 44.53,47.2 45.5,45.5 C46.08,44.67 45.88,43.53 45.05,42.95 C44.22,42.37 43.08,42.57 42.5,43.4 L42.4,43.5 C38.48,47.88 33.19,50.81 27.4,51.8 Z" fill="#422B0D"/>
  <path d="M84.5,36.4 C83.92,35.57 82.78,35.37 81.95,35.95 C81.12,36.53 80.92,37.67 81.5,38.5 C82.47,40.2 83.72,41.72 85.2,43 C89.1,46.57 94.21,48.54 99.5,48.5 C102,48.4 101.8,45.2 99.6,44.8 C93.74,43.84 88.41,40.87 84.5,36.4 L84.5,36.4" fill="#422B0D"/>
  <path d="M37.75,62.65 C36.26,63.37 35.46,65.03 35.84,66.65 C36.84,70.96 40.2,73.46 43.79,73.46 C48.13,73.46 52.07,69.79 52.07,63.71 C52.08,62.62 51.94,61.54 51.66,60.49 C51.12,58.64 49.19,57.58 47.35,58.12 C47.15,58.18 46.97,58.25 46.78,58.34 L37.75,62.65 Z" fill="#422B0D"/>
  <path d="M47.38,61.78 L47.38,61.78 C46.83,60.95 45.44,60.78 43.97,61.78 C42.5,62.78 42.12,64.1 42.67,64.93 L42.67,64.93 C43.23,65.77 44.61,65.93 46.08,64.93 C47.55,63.93 47.93,62.62 47.38,61.78 Z" fill="#896024"/>
  <path d="M89.84,62.65 C91.34,63.37 92.14,65.03 91.76,66.65 C90.71,70.96 87.39,73.46 83.76,73.46 C79.42,73.46 75.47,69.79 75.47,63.71 C75.47,62.62 75.6,61.54 75.88,60.49 C76.42,58.64 78.36,57.58 80.21,58.12 C80.4,58.18 80.59,58.25 80.77,58.34 L89.84,62.65 Z" fill="#422B0D"/>
  <path d="M80.21,61.78 L80.21,61.78 C80.77,60.95 82.21,60.78 83.63,61.78 C85.05,62.78 85.48,64.1 84.92,64.93 L84.92,64.93 C84.37,65.77 82.98,65.93 81.51,64.93 C80.04,63.93 79.66,62.62 80.21,61.78 Z" fill="#896024"/>
</svg>

<svg viewBox="0 0 128 128" xmlns="http://www.w3.org/2000/svg">
  <g id="facial_expressions">
    <g id="nauseated-face">
      <radialGradient id="SVGID_1_" cx="63.6" cy="2288.8999" gradientTransform="matrix(1 0 0 1 0 -2226)" gradientUnits="userSpaceOnUse" r="56.9597">
        <stop offset="0" stop-color="#FDE030"/>
        <stop offset="0.19" stop-color="#F1DE37"/>
        <stop offset="0.53" stop-color="#D1D748"/>
        <stop offset="0.99" stop-color="#9DCC64"/>
        <stop offset="1" stop-color="#9CCC65"/>
      </radialGradient>
      <path d="M63.6,118.8c-27.9,0-58-17.5-58-55.9S35.7,7,63.6,7c15.5,0,29.8,5.1,40.4,14.4 c11.5,10.2,17.6,24.6,17.6,41.5s-6.1,31.2-17.6,41.4C93.4,113.6,79,118.8,63.6,118.8z" fill="url(#SVGID_1_)"/>
    </g>
    <path d="M111.49,29.67c5.33,8.6,8.11,18.84,8.11,30.23c0,16.9-6.1,31.2-17.6,41.4 c-10.6,9.3-25,14.5-40.4,14.5c-18.06,0-37-7.35-48.18-22.94c10.76,17.66,31,25.94,50.18,25.94c15.4,0,29.8-5.2,40.4-14.5 c11.5-10.2,17.6-24.5,17.6-41.4C121.6,50.16,118.13,38.84,111.49,29.67z" fill="#789E46"/>
    <g id="nauseated-face-2">
      <g id="blush" opacity="0.65">
        <radialGradient id="SVGID_2_" cx="144.3065" cy="-71.919" gradientTransform="matrix(0.89 0 0 -0.78 -36.33 40.18)" gradientUnits="userSpaceOnUse" r="15.84">
          <stop offset="0" stop-color="#ED7770"/>
          <stop offset="0.08" stop-color="#ED7770" stop-opacity="0.97"/>
          <stop offset="0.21" stop-color="#ED7770" stop-opacity="0.88"/>
          <stop offset="0.35" stop-color="#ED7770" stop-opacity="0.74"/>
          <stop offset="0.52" stop-color="#ED7770" stop-opacity="0.55"/>
          <stop offset="0.71" stop-color="#ED7770" stop-opacity="0.29"/>
          <stop offset="0.9" stop-color="#ED7770" stop-opacity="0"/>
        </radialGradient>
        <ellipse cx="92.13" cy="96.1" fill="url(#SVGID_2_)" rx="12.97" ry="11.89"/>
      </g>
      <g id="blush-2" opacity="0.65">
        <radialGradient id="SVGID_3_" cx="82.3708" cy="-73.689" gradientTransform="matrix(0.89 0 0 -0.78 -36.33 40.8)" gradientUnits="userSpaceOnUse" r="15.8327">
          <stop offset="0" stop-color="#ED7770"/>
          <stop offset="0.08" stop-color="#ED7770" stop-opacity="0.97"/>
          <stop offset="0.21" stop-color="#ED7770" stop-opacity="0.88"/>
          <stop offset="0.35" stop-color="#ED7770" stop-opacity="0.74"/>
          <stop offset="0.52" stop-color="#ED7770" stop-opacity="0.55"/>
          <stop offset="0.71" stop-color="#ED7770" stop-opacity="0.29"/>
          <stop offset="0.9" stop-color="#ED7770" stop-opacity="0"/>
        </radialGradient>
        <ellipse cx="36.98" cy="98.1" fill="url(#SVGID_3_)" rx="12.97" ry="11.89"/>
      </g>
      <path d="M42.73,87.14 c2.65,1.27,5.69,4.86,6.8,7.58c0.86,2.16,1.09,4.53,0.64,6.82" fill="none" stroke="#35220B" stroke-linecap="round" stroke-linejoin="round" stroke-width="5.26"/>
      <path d="M84.5,86.41 c-2.65,1.26-5.71,4.83-6.82,7.55c-0.56,1.36-0.86,2.82-0.89,4.29" fill="none" stroke="#35220B" stroke-linecap="round" stroke-linejoin="round" stroke-width="5.26"/>
      <path d="M49.45,94.18 c0,0,1.72-4.81,14.19-5c11.31-0.18,14,3.45,14,3.45" fill="none" stroke="#35220B" stroke-linecap="round" stroke-linejoin="round" stroke-width="5.26"/>
    </g>
    <g id="eyebrows">
      <path d="M27.4,51.8c-2.2,0.4-2.3,3.6,0.1,3.7c5.3,0.07,10.42-1.9,14.3-5.5c1.48-1.28,2.73-2.8,3.7-4.5 c0.58-0.83,0.38-1.97-0.45-2.55s-1.97-0.38-2.55,0.45l-0.1,0.1C38.48,47.88,33.19,50.81,27.4,51.8z" fill="#422B0D"/>
      <path d="M84.5,36.4c-0.58-0.83-1.72-1.03-2.55-0.45c-0.83,0.58-1.03,1.72-0.45,2.55 c0.97,1.7,2.22,3.22,3.7,4.5c3.9,3.57,9.01,5.54,14.3,5.5c2.5-0.1,2.3-3.3,0.1-3.7C93.74,43.84,88.41,40.87,84.5,36.4L84.5,36.4" fill="#422B0D"/>
    </g>
    <g id="eyes">
      <g id="peepers">
        <path d="M37.75,62.65c-1.49,0.72-2.29,2.38-1.91,4c1,4.31,4.36,6.81,7.95,6.81c4.34,0,8.28-3.67,8.28-9.75 c0.01-1.09-0.13-2.17-0.41-3.22c-0.54-1.85-2.47-2.91-4.31-2.37c-0.2,0.06-0.38,0.13-0.57,0.22L37.75,62.65z" fill="#422B0D"/>
      </g>
    </g>
    <g id="peepers-2">
      <path d="M47.38,61.78L47.38,61.78c-0.55-0.83-1.94-1-3.41,0s-1.85,2.32-1.3,3.15l0,0 c0.56,0.84,1.94,1,3.41,0S47.93,62.62,47.38,61.78z" fill="#896024"/>
    </g>
    <g id="eyes-2">
      <g id="peepers-3">
        <path d="M89.84,62.65c1.5,0.72,2.3,2.38,1.92,4c-1.05,4.31-4.37,6.81-8,6.81c-4.34,0-8.29-3.67-8.29-9.75 c0-1.09,0.13-2.17,0.41-3.22c0.54-1.85,2.48-2.91,4.33-2.37c0.19,0.06,0.38,0.13,0.56,0.22L89.84,62.65z" fill="#422B0D"/>
      </g>
    </g>
    <g id="peepers-4">
      <path d="M80.21,61.78L80.21,61.78c0.56-0.83,2-1,3.42,0s1.85,2.32,1.29,3.15l0,0c-0.55,0.84-1.94,1-3.41,0 S79.66,62.62,80.21,61.78z" fill="#896024"/>
    </g>
  </g>
</svg>
